X:1
T:Jupiter
T:Jupiter Theme
T:Gustav Holst (1874-1934) arr. E Muirhead
T:"Thaxted", from The Planets
C:Gustav Holst
%%score { ( 1 3 ) | 2 }
L:1/8
Q:1/4=70
M:3/4
K:C
V:1 treble nm="Piano" snm="Pno."
V:3 treble 
V:2 bass 
V:1
"^Andante maestoso"!p! EG | A3 c B>G | cd c2 B2 |!<(! AB A2 G2!<)! | E4 EG | A3 c B>G | cd e2 e2 | %7
 e!<(!d c2 d2!<)! | c4 [cg]e | d2 d2 ce | d2 G2 [cg]e | [Bd]2 d2 eg | [fa]4 [fa]b | %13
 [ec']2 [eb]2 [ca]2 | [cg]2 [cc']2 [ce]2 | dc d2 e2 | g4 EG | A3 c B>G | cd c2 B2 | AB A2 G2 | %20
 [CE]4 [B,E]G | [FA]3 c [GB]>G | [Gc]d e2[Q:1/4=65]"^rit." !>![Ge]2 | %23
!<(! !>![Ae]!>!d !>!c2 !>![Fd]2!<)! | !fermata![Ec]6 |] %25
V:2
 z2 | [F,A,]4 [G,B,]2 | [A,C]4 [G,B,]2 | [F,A,]4 [G,B,]2 | [A,C]4 [G,B,]2 | [F,A,]4 [G,B,]2 | %6
 [A,C]4 [G,B,]2 | [F,A,]4 [G,B,]2 | [CE]4 z2 | [G,B,]4 [F,A,]2 | [G,B,]2 G,2 G,2 | [G,B,]4 [G,C]2 | %12
 F,2 E,2 D,2 | A,2 G,2 F,2 | E,2 D,2 C,2 | F,2 D,2 C,2 | B,,2 A,,2 G,,2 | [F,,C,]4 [G,,D,]2 | %18
 [A,,E,]4 [G,,D,]2 | [F,,C,]4 [G,,D,]2 | [A,,E,]4 G,,2 | [F,,C,]4 [G,,D,]2 | [E,,C,]4 !>!C,!>!E, | %23
 !>!F,4 !>!G,2 | !fermata![C,G,]6 |] %25
V:3
 x2 | x6 | x6 | x6 | x6 | x6 | x6 | x6 | x6 | x6 | x6 | x6 | x6 | x6 | x6 | x6 | d4 x2 | x6 | x6 | %19
 x6 | x6 | x6 | x6 | x6 | x6 |] %25

